X: 25070
T: Maids Of Castlebar, The
R: reel
M: 4/4
K: Dmajor
ABc||dD D2 AD D2|DEFA BAFA|d2cd (3Bcd AF|DEFD ED D2|
FD D2 AD D2|DEFA BAFA|dfec dBAG|FDEF D2Bc|
dD D2 AD D2|DEFA BAFA|dDcD BDAD|DEFD ED D2|
FD D2 AD D2|DEFA BAFA|dfec dBAG|FDEF D4|
|:a2^ga fd d2|fdad fddf|(3gfe be geef|(3gfe be geeg|
f3a g3e|fdec dcBA|Bcde (3f^ga ec|dBAG FDD2:|

